svg/clips.svg

<?xml version="1.0" encoding="UTF-8" standalone="no"?>
<svg
   width="25"
   height="25"
   viewBox="0 0 25 25"
   fill="none"
   version="1.1"
   id="svg4"
   sodipodi:docname="clips.svg"
   inkscape:version="1.4 (86a8ad7, 2024-10-11)"
   xmlns:inkscape="http://www.inkscape.org/namespaces/inkscape"
   xmlns:sodipodi="http://sodipodi.sourceforge.net/DTD/sodipodi-0.dtd"
   xmlns="http://www.w3.org/2000/svg"
   xmlns:svg="http://www.w3.org/2000/svg">
  <defs
     id="defs4" />
  <sodipodi:namedview
     id="namedview4"
     pagecolor="#ffffff"
     bordercolor="#000000"
     borderopacity="0.25"
     inkscape:showpageshadow="2"
     inkscape:pageopacity="0.0"
     inkscape:pagecheckerboard="0"
     inkscape:deskcolor="#d1d1d1"
     inkscape:zoom="31.32"
     inkscape:cx="12.5"
     inkscape:cy="7.3595147"
     inkscape:window-width="1920"
     inkscape:window-height="1001"
     inkscape:window-x="-9"
     inkscape:window-y="-9"
     inkscape:window-maximized="1"
     inkscape:current-layer="svg4" />
  <g
     id="g4"
     transform="translate(0.56676164,-0.2082669)">
    <path
       d="M 15.0701,8.45182 18.4776,7.53879 C 18.702,7.47866 18.8142,7.44859 18.9025,7.40503 19.2653,7.22614 19.4846,6.84635 19.4581,6.44275 19.4517,6.34447 19.4216,6.23227 19.3615,6.00785 19.1811,5.33462 19.0909,4.998 18.9602,4.733 18.4235,3.64475 17.2842,2.98693 16.0734,3.06629 c -0.1232,0.00808 -0.2538,0.02853 -0.4131,0.06277 0.0191,0.0823 0.0244,0.16924 0.0138,0.25795 z"
       fill="#2d2d2d"
       id="path1" />
    <path
       d="M 9.37909,4.80032 14.1472,3.52269 13.5468,8.55664 c -0.0122,0.10283 -0.0031,0.20329 0.024,0.29689 L 8.7915,10.1341 9.39557,5.06933 C 9.40663,4.97664 9.40027,4.88588 9.37909,4.80032 Z"
       fill="#2d2d2d"
       id="path2" />
    <path
       fill-rule="evenodd"
       clip-rule="evenodd"
       d="M 16.2289,11.3567 H 4.22888 v 5 c 0,2.8284 0,4.2426 0.87868,5.1213 0.87868,0.8787 2.29289,0.8787 5.12134,0.8787 h 4 c 2.8284,0 4.2426,0 5.1213,-0.8787 0.8787,-0.8787 0.8787,-2.2929 0.8787,-5.1213 v -1 c 0,-1.8856 0,-2.8284 -0.5858,-3.4142 -0.5858,-0.5858 -1.5286,-0.5858 -3.4142,-0.5858 z m -3.1916,4.2235 c 0.7944,0.5695 1.1916,0.8543 1.1916,1.2765 0,0.4222 -0.3972,0.707 -1.1916,1.2765 -0.8053,0.5773 -1.2079,0.866 -1.5082,0.654 -0.3002,-0.2119 -0.3002,-0.7848 -0.3002,-1.9305 0,-1.1457 0,-1.7186 0.3002,-1.9305 0.3003,-0.212 0.7029,0.0767 1.5082,0.654 z"
       fill="#2d2d2d"
       id="path3" />
    <path
       d="m 7.26841,10.239 c -0.01226,0.1028 -0.00309,0.2032 0.02397,0.2968 L 4.23016,11.3564 C 3.74637,9.55083 3.50448,8.64806 3.71253,7.8716 3.84883,7.36294 4.11661,6.89911 4.48898,6.52674 5.05739,5.95833 5.96017,5.71644 7.76571,5.23264 l 0.1031,-0.02762 z"
       fill="#2d2d2d"
       id="path4" />
  </g>
</svg>

<svg width="25" height="25" viewBox="0 0 25 25" fill="none" xmlns="http://www.w3.org/2000/svg">
<path d="M15.0701 8.45182L18.4776 7.53879C18.702 7.47866 18.8142 7.44859 18.9025 7.40503C19.2653 7.22614 19.4846 6.84635 19.4581 6.44275C19.4517 6.34447 19.4216 6.23227 19.3615 6.00785C19.1811 5.33462 19.0909 4.998 18.9602 4.733C18.4235 3.64475 17.2842 2.98693 16.0734 3.06629C15.9502 3.07437 15.8196 3.09482 15.6603 3.12906C15.6794 3.21136 15.6847 3.2983 15.6741 3.38701L15.0701 8.45182Z" fill="#2D2D2D"/>
<path d="M9.37909 4.80032L14.1472 3.52269L13.5468 8.55664C13.5346 8.65947 13.5437 8.75993 13.5708 8.85353L8.7915 10.1341L9.39557 5.06933C9.40663 4.97664 9.40027 4.88588 9.37909 4.80032Z" fill="#2D2D2D"/>
<path fill-rule="evenodd" clip-rule="evenodd" d="M16.2289 11.3567H4.22888V16.3567C4.22888 19.1851 4.22888 20.5993 5.10756 21.478C5.98624 22.3567 7.40045 22.3567 10.2289 22.3567H14.2289C17.0573 22.3567 18.4715 22.3567 19.3502 21.478C20.2289 20.5993 20.2289 19.1851 20.2289 16.3567V15.3567C20.2289 13.4711 20.2289 12.5283 19.6431 11.9425C19.0573 11.3567 18.1145 11.3567 16.2289 11.3567ZM13.0373 15.5802C13.8317 16.1497 14.2289 16.4345 14.2289 16.8567C14.2289 17.2789 13.8317 17.5637 13.0373 18.1332C12.232 18.7105 11.8294 18.9992 11.5291 18.7872C11.2289 18.5753 11.2289 18.0024 11.2289 16.8567C11.2289 15.711 11.2289 15.1381 11.5291 14.9262C11.8294 14.7142 12.232 15.0029 13.0373 15.5802Z" fill="#2D2D2D"/>
<path d="M7.26841 10.239C7.25615 10.3418 7.26532 10.4422 7.29238 10.5358L4.23016 11.3564C3.74637 9.55083 3.50448 8.64806 3.71253 7.8716C3.84883 7.36294 4.11661 6.89911 4.48898 6.52674C5.05739 5.95833 5.96017 5.71644 7.76571 5.23264L7.86881 5.20502L7.26841 10.239Z" fill="#2D2D2D"/>
</svg>
